svg/question_circle_positive.svg

<?xml version="1.0" encoding="UTF-8" standalone="no"?>
<!-- Created with Inkscape (http://www.inkscape.org/) -->
<svg id="svg8" xmlns:rdf="http://www.w3.org/1999/02/22-rdf-syntax-ns#" xmlns="http://www.w3.org/2000/svg" xmlns:osb="http://www.openswatchbook.org/uri/2009/osb" height="48" width="48" version="1.1" xmlns:cc="http://creativecommons.org/ns#" viewBox="0 0 12.7 12.7" xmlns:dc="http://purl.org/dc/elements/1.1/">
 <title id="title4753">UIO-icon</title>
 <metadata id="metadata5">
  <rdf:RDF>
   <cc:Work rdf:about="">
    <dc:format>image/svg+xml</dc:format>
    <dc:type rdf:resource="http://purl.org/dc/dcmitype/StillImage"/>
    <dc:title>UIO-icon</dc:title>
    <dc:creator>
     <cc:Agent>
      <dc:title>Joaquín Urbano</dc:title>
     </cc:Agent>
    </dc:creator>
    <dc:rights>
     <cc:Agent>
      <dc:title>GPL</dc:title>
     </cc:Agent>
    </dc:rights>
   </cc:Work>
  </rdf:RDF>
 </metadata>
 <g id="layer1" fill="#333" transform="translate(0,-284.3)">
  <path id="path881" d="m24 4a20 20 0 0 0 -20 20 20 20 0 0 0 20 20 20 20 0 0 0 20 -20 20 20 0 0 0 -20 -20zm0.083984 8.5469c1.9409 0 3.451 0.52478 4.5293 1.5723 1.0886 1.0372 1.6328 2.4636 1.6328 4.2812 0 1.7971-0.83245 3.5687-2.4961 5.3145l-1.6777 1.6641c-0.74967 0.83182-1.125 2.0289-1.125 3.5898h-2.8496c0.020539-1.2221 0.15928-2.1879 0.41602-2.8965 0.25674-0.70859 0.77957-1.4948 1.5703-2.3574l2.0195-2.0781c0.86263-0.9756 1.293-2.0232 1.293-3.1426 0-1.0783-0.28284-1.9214-0.84766-2.5273-0.56482-0.61617-1.3866-0.92383-2.4648-0.92383-1.0475 0-1.8887 0.27748-2.5254 0.83203s-0.95508 1.2979-0.95508 2.2324h-2.8496c0.020539-1.6636 0.61104-3.0029 1.7715-4.0195 1.172-1.027 2.691-1.541 4.56-1.541zm-0.43 19.672c0.55455 0 0.97417 0.15821 1.2617 0.47656 0.28754 0.30808 0.43164 0.69413 0.43164 1.1562 0 0.46212-0.1441 0.84621-0.43164 1.1543-0.28754 0.29781-0.70717 0.44727-1.2617 0.44727-0.55455 0-0.97613-0.14945-1.2637-0.44727-0.27727-0.30808-0.41602-0.69217-0.41602-1.1543 0-0.46212 0.13874-0.84817 0.41602-1.1562 0.288-0.319 0.71-0.477 1.264-0.477z" fill-rule="evenodd" transform="matrix(.26458 0 0 .26458 0 284.3)"/>
 </g>
</svg>

<svg width="48" height="48" viewBox="0 0 48 48" fill="none" xmlns="http://www.w3.org/2000/svg">
<path fill-rule="evenodd" clip-rule="evenodd" d="M23.9997 4C21.3733 4 18.7727 4.51731 16.3462 5.52239C13.9197 6.52747 11.7149 8.00064 9.85779 9.85779C6.10711 13.6085 4 18.6955 4 23.9997C4 29.304 6.10711 34.391 9.85779 38.1417C11.7149 39.9989 13.9197 41.472 16.3462 42.4771C18.7727 43.4822 21.3733 43.9995 23.9997 43.9995C29.304 43.9995 34.391 41.8924 38.1417 38.1417C41.8924 34.391 43.9995 29.304 43.9995 23.9997C43.9995 21.3733 43.4822 18.7727 42.4771 16.3462C41.472 13.9197 39.9989 11.7149 38.1417 9.85779C36.2846 8.00064 34.0798 6.52747 31.6533 5.52239C29.2268 4.51731 26.6262 4 23.9997 4ZM24.0837 12.5468C26.0246 12.5468 27.5347 13.0716 28.613 14.1191C29.7016 15.1563 30.2458 16.5826 30.2458 18.4002C30.2458 20.1973 29.4133 21.9689 27.7497 23.7147L26.072 25.3787C25.3223 26.2105 24.947 27.4076 24.947 28.9685H22.0975C22.118 27.7464 22.2567 26.7806 22.5135 26.072C22.7702 25.3634 23.293 24.5772 24.0838 23.7147L26.1032 21.6366C26.9658 20.661 27.3962 19.6134 27.3962 18.494C27.3962 17.4157 27.1134 16.5726 26.5486 15.9667C25.9837 15.3506 25.162 15.0429 24.0838 15.0429C23.0363 15.0429 22.1951 15.3204 21.5584 15.875C20.9217 16.4295 20.6034 17.1728 20.6034 18.1073H17.7538C17.7743 16.4437 18.3648 15.1045 19.5253 14.0879C20.6973 13.0609 22.2162 12.5469 24.0852 12.5469L24.0837 12.5468ZM23.6537 32.2185C24.2083 32.2185 24.6279 32.3768 24.9154 32.6951C25.203 33.0032 25.3471 33.3892 25.3471 33.8513C25.3471 34.3134 25.203 34.6975 24.9154 35.0056C24.6279 35.3034 24.2083 35.4528 23.6537 35.4528C23.0992 35.4528 22.6776 35.3034 22.3901 35.0056C22.1128 34.6975 21.974 34.3134 21.974 33.8513C21.974 33.3892 22.1128 33.0031 22.3901 32.6951C22.6781 32.3761 23.1 32.2181 23.654 32.2181L23.6537 32.2185Z" fill="#333333"/>
</svg>
